X:1
T:Behold Him Now on Yonder Tree
T:Alexander Lee
T:Behold Him Now on Yonder Tree
T:Public Domain
T:Public Domain
T:Public Domain
C:Alexander Lee
Z:Public Domain
%%score ( 1 2 ) ( 3 4 )
L:1/8
M:3/4
K:D
V:1 treble 
V:2 treble 
V:3 bass 
V:4 bass 
V:1
 DD E | F3 F [DA]>[EG] | ([DF]2 [CE])[CE] E[^DF] | [EG]3 ([FA]/[GB]/) [FA][EG] | %4
w: 1.~Be- hold Him|on yon- der tree,|Prince * of Peace, the|heav- enly * King; O|
w: 2.~O sin- ner,|for you and me|free- * ly suf- fers|in our * stead; And|
w: 3.~O lov- ing|ior, take my heart,|long- * er can I|live from * Thee! With|
 ([EG]2 [DF])D [DF][EG] | [FA]3 [FA] d>c | ([Ac]2 [GB])D D[DE] | F3 G FE x | D3 [DF] [EG][FA] | %9
w: what * can His trans-|ion be Such shame-|pun- * ish- ment to|lo, a thief hangs|side; Who just- ly|
w: lo, * He dies up-|the tree; Be- hold,|bows * His sac- red|pure, yet He has|guilt, By death our|
w: all * un- like Thee|I part; Thy won-|love * has con- quered|yield to Thee my|all; Ac- cept me|
 [GB]3 [CE] [DF][EG] | [FA]3 [B,D] [CE][DF] x | [EG]3 C [B,D][CE] x | [DF]3 D [DF][EG] | A3 A d>c | %14
w: fers for his crime.|But why should Christ|be cru- ci- fied,|One so ho- ly,|di- vine? * *|
w: som He has paid;|It was for us|His blood was spilt;|ev- ery sin on|was laid. It was|
w: Lord, as Thine own;|I’ll be o- be-|dient to Thy call|spend my life for|a- lone. * *|
 ([Ac]2 [GB])D DE x | F3 G FE x | D3 ||"^Refrain" F[EG] [FA] | (FD z) E [DF][EG] x2 | %19
w: |||||
w: yes, * ev- en me,|died on Cal- va-|soul|cleanse from all|guilt, * His pre- cious|
w: |||||
 (EC) z D [CE][DF] x2 | D2 (z C) [B,D][CE] | [DF]3 D [DF][EG] | [FA]3 A d>c | ([^Ac]2 B)D DE x | %24
w: |||||
w: Sav- * ior spilt. *|||||
w: |||||
 F3 G F<E x | D3 |] %26
w: ||
w: ||
w: ||
V:2
 x D2 | D4 x2 | x6 | x6 | x3 D x2 | x4 A2 | x3 D D x | D4 C2 x | D3 x3 | x6 | x7 | x3 C x3 | %12
w: now|The|||gress-|ful|bring? And|on each|suf-|||The|
w: see,|He|||on|He|head! So|borne our|ran-|||Our|
w: Sav-|No|||now|drous|me. I|lit- tle|now,|||And|
 x3 D x2 | F4 A2 | x3 D D2 E | D4 C2 x | D3 || F x2 | B3 (E2 E) x2 | A3 (D2 D) x2 | G3 (C2 C) | %21
w: so|||||||||
w: Him|for me,|That Je- sus|ry; My|to|its|blood my *|||
w: Thee|||||||||
 x3 D x2 | x3 A ^A2 | x3 D D2 E | D4 C2 x | D3 |] %26
w: |||||
w: |||||
w: |||||
V:3
 [D,F,]F, G, | [D,A,]4 [F,A,]>[G,B,] | A,4 G,F, | (B,2 D2) [A,C]2 | A,3 F, [D,A,]2 | %5
 [D,D]4 [D,D]2 | D3 B, B,_B, | A,2 z B, A,G, x | [D,F,]3 z [D,D]2 | [G,D]3 [G,A,] [F,A,][E,C] | %10
 D,2 z A, E,D, x | G,2 z A, F,E, x | A,3 F, [D,A,]2 | [D,D]4 [F,D]2 | D3 B, B,_B, x | %15
 A,2 z B, A,G, x | [D,F,]3 || DC =C | (B,2 z2) G,2 x2 | C2 z2 F,2 x2 | F,2 E,2 [A,,A,]2 | %21
 A,3 F, [D,A,]2 | (DA, D)F F>E | (E2 D)B, B,_B, x | A,2 z B, A,<G, x | [D,F,]3 |] %26
V:4
 x D,2 | x6 | A,4 B,2 | E,4 x2 | D,4 x2 | x6 | G,4 G,2 | A,3 (A,,2 A,,2) | x6 | x6 | D3 (F,2 A,2) | %11
 B,3 (G,2 A,2) | D,4 x2 | x6 | G,4 G,2 _B, | A,3 (A,,2 A,,2) | x3 || x D,2 | G,4 C4 | F,4 B,4 | %20
 B,4 x2 | D,4 x2 | D,4 F,2 | G,4 _B, G,2 | A,3 A,,4 | x3 |] %26

